X: 3881
T: Black Rose, The
R: waltz
M: 3/4
K: Dmajor
|:AF|"D" A2 D2 FA|"A7" e4 de|"F#m" f4 e2|"D" d B3 AF|"A7" E4 DE|"F#m" F4 E2|"D" D6|
d4 e2|f2 g2 fe|d4 ef|A4 FA|"A7" e4 de|"F#m" f4 e2|"D" d6|d2 d2 ef|"A7" g4 fe|
"D" d4 ef|A4 FA|"A7" e4 de|"F#m" f4 e2|"G" d4 B2|z4"D" AF|A2 D2 FA|"A7" e4 de|
"F#m" f4 e2|"D" d B3 AF|"A7" E4 DE|"F#m" F4 E2|"D" D4:|

